X: 11483
T: WALTZ
%R: waltz
B: W. Hamilton "Universal Tune-Book" Vol. 1 Glasgow 1844 p.148 #3
S: http://imslp.org/wiki/Hamilton's_Universal_Tune-Book_(Various)
Z: 2016 John Chambers <jc:trillian.mit.edu>
M: 3/8
L: 1/16
K: G
% - - - - - - - - - - - - - - - - - - - - - - - - -
Bc |\
d3gfe | d3cBA | G3ABc | ^G2A2 Bc |\
d3efg | a3gfe | d2dfe^c | d4 |] d2 |\
c'4 (3(agf) | gb d2d2 | c'2a2f2 | gb d2dd |
b3agf | ~e3fgb | d3cBA | G4 |] [M:3/4]\
|: B2c2 |\
d4 dedc B4 | d4 dedc B4 | g4 f4 g4 | b4 a4 d4 |\
c4 cdcB A4 | c4 cdcB A4 | f4 e4 f4 | g8 :|
% - - - - - - - - - - - - - - - - - - - - - - - - -

%%sep 1 1 500
%%sep 1 1 500

